X:213
T:Furuboms Polska
M:3/4
L:1/8
K:Am
|: "Am"A2 A>B c>d | e2e4 | "E7"B2 B>d c>B | "Am"B>A A2 E2 \
|  "Am"A2 A>B c>d | e2e4 | "E7"B2 B>d c>B | "Am"B>A A4 :|
|: "G7"g2  g>a g>f | "C"f>e e4 | "G7"G2 G>B d>B | "C"c2 c>d e>f \
|  "G7"g2  g>a g>f | "C"f>e e4 | "G7"G2 G>B d>B | "C"c2 c4 :|
